static/assets/img/dropbox.svg

<svg fill="none" height="48" viewBox="0 0 48 48" width="48" xmlns="http://www.w3.org/2000/svg"><path d="m12 4-12 7.723 12 7.6094 12-7.6094zm24 0-12 7.723 12 7.6094 12-7.6094zm-36 23.0554 12 7.723 12-7.723-12-7.723zm36-7.723-12 7.723 12 7.723 12-7.723zm-24 17.9446 12 7.723 12-7.723-12-7.6094z" fill="#0069fb"/></svg>

<svg width="48" height="48" viewBox="0 0 48 48" fill="none" xmlns="http://www.w3.org/2000/svg">
<path d="M12 4L0 11.723L12 19.3324L24 11.723L12 4ZM36 4L24 11.723L36 19.3324L48 11.723L36 4ZM0 27.0554L12 34.7784L24 27.0554L12 19.3324L0 27.0554ZM36 19.3324L24 27.0554L36 34.7784L48 27.0554L36 19.3324ZM12 37.277L24 45L36 37.277L24 29.6676L12 37.277Z" fill="#0069FB"/>
</svg>
